X: 1
T: Decoherence
M: 2/4
L: 1/8
R: polka
K: Amin
|:Ae Ad|B>c BA|GB EG|d>c BA/G/|
Ae Ad|B>c BA|GB EG/B/|Ac/B/ A>G:|
|:Aa Ag|e>d ce|dB B/c/B/A/|GB EG/B/|
Aa Ag|e>d ce|dB B/c/B/G/|1 Ae AG:|2 Ac/B/ A2||
